; generated by PrusaSlicer 2.8.1+win64 on 2026-05-11 at 21:20:35 UTC

; 

; external perimeters extrusion width = 0.45mm
; perimeters extrusion width = 0.45mm
; infill extrusion width = 0.45mm
; solid infill extrusion width = 0.45mm
; top infill extrusion width = 0.40mm
; first layer extrusion width = 0.70mm

M104 S200 ; set temperature
;TYPE:Custom
G28 ; home all axes
G1 Z5 F5000 ; lift nozzle
M109 S200 ; set temperature and wait for it to be reached
G21 ; set units to millimeters
G90 ; use absolute coordinates
M82 ; use absolute distances for extrusion
G92 E0
; Filament gcode
M107
;LAYER_CHANGE
;Z:0.35
;HEIGHT:0.35
G1 E-2 F2400
G1 Z.35 F7800
G1 X0 Y-.688
G1 E0 F2400
;TYPE:Skirt/Brim
;WIDTH:0.7
G1 F1800
G1 X-24 Y-.688 E2.18231
G1 X-26.203 Y-1.084 E2.38584
G1 X-28.129 Y-2.225 E2.5894
G1 X-29.535 Y-3.966 E2.79289
G1 X-30.312 Y-7 E3.07767
G1 X-30.312 Y-10 E3.35046
G1 X-29.916 Y-12.203 E3.55399
G1 X-28.775 Y-14.129 E3.75755
G1 X-27.034 Y-15.535 E3.96104
G1 X-24 Y-16.312 E4.24582
G1 X24 Y-16.312 E8.61044
G1 X26.203 Y-15.916 E8.81397
G1 X28.129 Y-14.775 E9.01753
G1 X29.535 Y-13.034 E9.22102
G1 X30.312 Y-10 E9.5058
G1 X30.312 Y-7 E9.77859
G1 X29.916 Y-4.797 E9.98212
G1 X28.775 Y-2.871 E10.18568
G1 X27.034 Y-1.465 E10.38917
G1 X24 Y-.688 E10.67395
G1 X.06 Y-.688 E12.8508
G1 E10.8508 F2400
G92 E0
G1 X.06 Y-.688 F7800
G92 E0
G1 X-22.5 Y-8.5
G1 E2 F2400
;TYPE:Perimeter
;WIDTH:0.500445
G1 F1800
G1 X22.5 Y-8.5 E4.78513
G1 X23.025 Y-7.975 F7800
;WIDTH:0.7
G1 F1800
G1 X-23.025 Y-7.975 E8.97243
G1 X-23.025 Y-9.025 E9.06791
G1 X23.025 Y-9.025 E13.25521
G1 X23.025 Y-8.5 E13.30295
G1 X23.025 Y-8.035 E13.34523
G1 X23.025 Y-8.035 F7800
G1 X23.65 Y-7.35
;TYPE:External perimeter
G1 F1800
G1 X-23.65 Y-7.35 E17.6462
G1 X-23.65 Y-9.65 E17.85534
G1 X23.65 Y-9.65 E22.15631
G1 X23.65 Y-8.5 E22.26088
G1 X23.65 Y-7.41 E22.35999
G1 X23.254 Y-7.351 F7800
;LAYER_CHANGE
;Z:0.65
;HEIGHT:0.3
G1 Z.65 F7800
G1 X23.004 Y-7.996
;TYPE:Perimeter
;WIDTH:0.45
G1 F3600
G1 X-23.004 Y-7.996 E24.57281
G1 X-23.004 Y-9.004 E24.62129
G1 X23.004 Y-9.004 E26.83411
G1 X23.004 Y-8.5 E26.85835
G1 X23.004 Y-8.056 E26.8797
G1 X23.004 Y-8.056 F7800
G1 X23.389 Y-7.611
G1 F3600
G1 X-23.389 Y-7.611 E29.12956
G1 X-23.389 Y-9.389 E29.21508
G1 X23.389 Y-9.389 E31.46494
G1 X23.389 Y-8.5 E31.5077
G1 X23.389 Y-7.671 E31.54757
G1 X23.389 Y-7.671 F7800
G1 X23.775 Y-7.225
;TYPE:External perimeter
G1 F1800
G1 X-23.775 Y-7.225 E33.83456
G1 X-23.775 Y-9.775 E33.95721
G1 X23.775 Y-9.775 E36.2442
G1 X23.775 Y-8.5 E36.30552
G1 X23.775 Y-7.285 E36.36396
G1 X23.379 Y-7.226 F7800
G1 X22.704 Y-8.704
;TYPE:Solid infill
;WIDTH:0.471738
G1 F1200
G1 X22.704 Y-8.296 E36.38469
G1 X-22.704 Y-8.296 E38.69177
G1 X-22.704 Y-8.704 E38.7125
G1 X22.511 Y-8.704 E41.00978
;LAYER_CHANGE
;Z:0.95
;HEIGHT:0.3
G1 Z.95 F7800
G1 X23.004 Y-7.996
;TYPE:Perimeter
;WIDTH:0.45
G1 F3600
G1 X-23.004 Y-7.996 E43.2226
G1 X-23.004 Y-9.004 E43.27108
G1 X23.004 Y-9.004 E45.4839
G1 X23.004 Y-8.5 E45.50814
G1 X23.004 Y-8.056 E45.52949
G1 X23.004 Y-8.056 F7800
G1 X23.389 Y-7.611
G1 F3600
G1 X-23.389 Y-7.611 E47.77935
G1 X-23.389 Y-9.389 E47.86487
G1 X23.389 Y-9.389 E50.11473
G1 X23.389 Y-8.5 E50.15749
G1 X23.389 Y-7.671 E50.19736
G1 X23.389 Y-7.671 F7800
G1 X23.775 Y-7.225
;TYPE:External perimeter
G1 F1800
G1 X-23.775 Y-7.225 E52.48435
G1 X-23.775 Y-9.775 E52.607
G1 X23.775 Y-9.775 E54.89399
G1 X23.775 Y-8.5 E54.95531
G1 X23.775 Y-7.285 E55.01375
G1 X23.379 Y-7.226 F7800
G1 E53.01375 F2400
G92 E0
G1 X-22.704 Y-8.296 F7800
G1 E2 F2400
;TYPE:Solid infill
;WIDTH:0.471738
G1 F1200
G1 X-22.704 Y-8.704 E2.02073
G1 X22.704 Y-8.704 E4.32781
G1 X22.704 Y-8.296 E4.34854
G1 X-22.511 Y-8.296 E6.64582
M106 S234.6
;LAYER_CHANGE
;Z:1.25
;HEIGHT:0.3
G1 Z1.25 F7800
G1 E4.64582 F2400
G92 E0
G1 X-22.511 Y-8.296 Z1.25 F7800
G1 X23.004 Y-7.996
G1 E2 F2400
;TYPE:Perimeter
;WIDTH:0.45
G1 F3600
G1 X-23.004 Y-7.996 E4.21282
G1 X-23.004 Y-9.004 E4.2613
G1 X23.004 Y-9.004 E6.47412
G1 X23.004 Y-8.5 E6.49836
G1 X23.004 Y-8.056 E6.51971
G1 X23.004 Y-8.056 F7800
G1 X23.389 Y-7.611
G1 F3600
G1 X-23.389 Y-7.611 E8.76957
G1 X-23.389 Y-9.389 E8.85509
G1 X23.389 Y-9.389 E11.10495
G1 X23.389 Y-8.5 E11.14771
G1 X23.389 Y-7.671 E11.18758
G1 X23.389 Y-7.671 F7800
G1 X23.775 Y-7.225
;TYPE:External perimeter
G1 F1800
G1 X-23.775 Y-7.225 E13.47457
G1 X-23.775 Y-9.775 E13.59722
G1 X23.775 Y-9.775 E15.88421
G1 X23.775 Y-8.5 E15.94553
G1 X23.775 Y-7.285 E16.00397
G1 X23.379 Y-7.226 F7800
G1 X22.704 Y-8.704
;TYPE:Solid infill
;WIDTH:0.471738
G1 F1200
G1 X22.704 Y-8.296 E16.0247
G1 X-22.704 Y-8.296 E18.33178
G1 X-22.704 Y-8.704 E18.35251
G1 X22.511 Y-8.704 E20.64979
;LAYER_CHANGE
;Z:1.55
;HEIGHT:0.3
G1 Z1.55 F7800
G1 X23.004 Y-7.996
;TYPE:Perimeter
;WIDTH:0.45
G1 F3600
G1 X-23.004 Y-7.996 E22.86261
G1 X-23.004 Y-9.004 E22.91109
G1 X23.004 Y-9.004 E25.12391
G1 X23.004 Y-8.5 E25.14815
G1 X23.004 Y-8.056 E25.1695
G1 X23.004 Y-8.056 F7800
G1 X23.389 Y-7.611
G1 F3600
G1 X-23.389 Y-7.611 E27.41936
G1 X-23.389 Y-9.389 E27.50488
G1 X23.389 Y-9.389 E29.75474
G1 X23.389 Y-8.5 E29.7975
G1 X23.389 Y-7.671 E29.83737
G1 X23.389 Y-7.671 F7800
G1 X23.775 Y-7.225
;TYPE:External perimeter
G1 F1800
G1 X-23.775 Y-7.225 E32.12436
G1 X-23.775 Y-9.775 E32.24701
G1 X23.775 Y-9.775 E34.534
G1 X23.775 Y-8.5 E34.59532
G1 X23.775 Y-7.285 E34.65376
G1 X23.379 Y-7.226 F7800
G1 E32.65376 F2400
G92 E0
G1 X-22.704 Y-8.296 F7800
G1 E2 F2400
;TYPE:Solid infill
;WIDTH:0.471738
G1 F1200
G1 X-22.704 Y-8.704 E2.02073
G1 X22.704 Y-8.704 E4.32781
G1 X22.704 Y-8.296 E4.34854
G1 X-22.511 Y-8.296 E6.64582
;LAYER_CHANGE
;Z:1.85
;HEIGHT:0.3
G1 Z1.85 F7800
G1 E4.64582 F2400
G92 E0
G1 X-22.511 Y-8.296 Z1.85 F7800
G1 X23.004 Y-7.996
G1 E2 F2400
;TYPE:Perimeter
;WIDTH:0.45
G1 F3600
G1 X-23.004 Y-7.996 E4.21282
G1 X-23.004 Y-9.004 E4.2613
G1 X23.004 Y-9.004 E6.47412
G1 X23.004 Y-8.5 E6.49836
G1 X23.004 Y-8.056 E6.51971
G1 X23.004 Y-8.056 F7800
G1 X23.389 Y-7.611
G1 F3600
G1 X-23.389 Y-7.611 E8.76957
G1 X-23.389 Y-9.389 E8.85509
G1 X23.389 Y-9.389 E11.10495
G1 X23.389 Y-8.5 E11.14771
G1 X23.389 Y-7.671 E11.18758
G1 X23.389 Y-7.671 F7800
G1 X23.775 Y-7.225
;TYPE:External perimeter
G1 F1800
G1 X-23.775 Y-7.225 E13.47457
G1 X-23.775 Y-9.775 E13.59722
G1 X23.775 Y-9.775 E15.88421
G1 X23.775 Y-8.5 E15.94553
G1 X23.775 Y-7.285 E16.00397
G1 X23.379 Y-7.226 F7800
G1 X22.704 Y-8.704
;TYPE:Solid infill
;WIDTH:0.471738
G1 F1200
G1 X22.704 Y-8.296 E16.0247
G1 X-22.704 Y-8.296 E18.33178
G1 X-22.704 Y-8.704 E18.35251
G1 X22.511 Y-8.704 E20.64979
;LAYER_CHANGE
;Z:2.15
;HEIGHT:0.3
G1 Z2.15 F7800
G1 X23.004 Y-7.996
;TYPE:Perimeter
;WIDTH:0.45
G1 F3600
G1 X-23.004 Y-7.996 E22.86261
G1 X-23.004 Y-9.004 E22.91109
G1 X23.004 Y-9.004 E25.12391
G1 X23.004 Y-8.5 E25.14815
G1 X23.004 Y-8.056 E25.1695
G1 X23.004 Y-8.056 F7800
G1 X23.389 Y-7.611
G1 F3600
G1 X-23.389 Y-7.611 E27.41936
G1 X-23.389 Y-9.389 E27.50488
G1 X23.389 Y-9.389 E29.75474
G1 X23.389 Y-8.5 E29.7975
G1 X23.389 Y-7.671 E29.83737
G1 X23.389 Y-7.671 F7800
G1 X23.775 Y-7.225
;TYPE:External perimeter
G1 F1800
G1 X-23.775 Y-7.225 E32.12436
G1 X-23.775 Y-9.775 E32.24701
G1 X23.775 Y-9.775 E34.534
G1 X23.775 Y-8.5 E34.59532
G1 X23.775 Y-7.285 E34.65376
G1 X23.379 Y-7.226 F7800
G1 E32.65376 F2400
G92 E0
G1 X-22.704 Y-8.296 F7800
G1 E2 F2400
;TYPE:Solid infill
;WIDTH:0.471738
G1 F1200
G1 X-22.704 Y-8.704 E2.02073
G1 X22.704 Y-8.704 E4.32781
G1 X22.704 Y-8.296 E4.34854
G1 X-22.511 Y-8.296 E6.64582
;LAYER_CHANGE
;Z:2.45
;HEIGHT:0.3
G1 Z2.45 F7800
G1 E4.64582 F2400
G92 E0
G1 X-22.511 Y-8.296 Z2.45 F7800
G1 X23.004 Y-7.996
G1 E2 F2400
;TYPE:Perimeter
;WIDTH:0.45
G1 F3600
G1 X-23.004 Y-7.996 E4.21282
G1 X-23.004 Y-9.004 E4.2613
G1 X23.004 Y-9.004 E6.47412
G1 X23.004 Y-8.5 E6.49836
G1 X23.004 Y-8.056 E6.51971
G1 X23.004 Y-8.056 F7800
G1 X23.389 Y-7.611
G1 F3600
G1 X-23.389 Y-7.611 E8.76957
G1 X-23.389 Y-9.389 E8.85509
G1 X23.389 Y-9.389 E11.10495
G1 X23.389 Y-8.5 E11.14771
G1 X23.389 Y-7.671 E11.18758
G1 X23.389 Y-7.671 F7800
G1 X23.775 Y-7.225
;TYPE:External perimeter
G1 F1800
G1 X-23.775 Y-7.225 E13.47457
G1 X-23.775 Y-9.775 E13.59722
G1 X23.775 Y-9.775 E15.88421
G1 X23.775 Y-8.5 E15.94553
G1 X23.775 Y-7.285 E16.00397
G1 X23.379 Y-7.226 F7800
G1 X22.704 Y-8.704
;TYPE:Solid infill
;WIDTH:0.471738
G1 F1200
G1 X22.704 Y-8.296 E16.0247
G1 X-22.704 Y-8.296 E18.33178
G1 X-22.704 Y-8.704 E18.35251
G1 X22.511 Y-8.704 E20.64979
;LAYER_CHANGE
;Z:2.75
;HEIGHT:0.3
G1 Z2.75 F7800
G1 X23.004 Y-7.996
;TYPE:Perimeter
;WIDTH:0.45
G1 F3600
G1 X-23.004 Y-7.996 E22.86261
G1 X-23.004 Y-9.004 E22.91109
G1 X23.004 Y-9.004 E25.12391
G1 X23.004 Y-8.5 E25.14815
G1 X23.004 Y-8.056 E25.1695
G1 X23.004 Y-8.056 F7800
G1 X23.389 Y-7.611
G1 F3600
G1 X-23.389 Y-7.611 E27.41936
G1 X-23.389 Y-9.389 E27.50488
G1 X23.389 Y-9.389 E29.75474
G1 X23.389 Y-8.5 E29.7975
G1 X23.389 Y-7.671 E29.83737
G1 X23.389 Y-7.671 F7800
G1 X23.775 Y-7.225
;TYPE:External perimeter
G1 F1800
G1 X-23.775 Y-7.225 E32.12436
G1 X-23.775 Y-9.775 E32.24701
G1 X23.775 Y-9.775 E34.534
G1 X23.775 Y-8.5 E34.59532
G1 X23.775 Y-7.285 E34.65376
G1 X23.379 Y-7.226 F7800
G1 E32.65376 F2400
G92 E0
G1 X-22.704 Y-8.296 F7800
G1 E2 F2400
;TYPE:Solid infill
;WIDTH:0.471738
G1 F1200
G1 X-22.704 Y-8.704 E2.02073
G1 X22.704 Y-8.704 E4.32781
G1 X22.704 Y-8.296 E4.34854
G1 X-22.511 Y-8.296 E6.64582
;LAYER_CHANGE
;Z:3.05
;HEIGHT:0.3
G1 Z3.05 F7800
G1 E4.64582 F2400
G92 E0
G1 X-22.511 Y-8.296 Z3.05 F7800
G1 X23.004 Y-7.996
G1 E2 F2400
;TYPE:Perimeter
;WIDTH:0.45
G1 F3600
G1 X-23.004 Y-7.996 E4.21282
G1 X-23.004 Y-9.004 E4.2613
G1 X23.004 Y-9.004 E6.47412
G1 X23.004 Y-8.5 E6.49836
G1 X23.004 Y-8.056 E6.51971
G1 X23.004 Y-8.056 F7800
G1 X23.389 Y-7.611
G1 F3600
G1 X-23.389 Y-7.611 E8.76957
G1 X-23.389 Y-9.389 E8.85509
G1 X23.389 Y-9.389 E11.10495
G1 X23.389 Y-8.5 E11.14771
G1 X23.389 Y-7.671 E11.18758
G1 X23.389 Y-7.671 F7800
G1 X23.775 Y-7.225
;TYPE:External perimeter
G1 F1800
G1 X-23.775 Y-7.225 E13.47457
G1 X-23.775 Y-9.775 E13.59722
G1 X23.775 Y-9.775 E15.88421
G1 X23.775 Y-8.5 E15.94553
G1 X23.775 Y-7.285 E16.00397
G1 X23.379 Y-7.226 F7800
G1 X22.704 Y-8.704
;TYPE:Solid infill
;WIDTH:0.471738
G1 F1200
G1 X22.704 Y-8.296 E16.0247
G1 X-22.704 Y-8.296 E18.33178
G1 X-22.704 Y-8.704 E18.35251
G1 X22.511 Y-8.704 E20.64979
;LAYER_CHANGE
;Z:3.35
;HEIGHT:0.3
G1 Z3.35 F7800
G1 X23.004 Y-7.996
;TYPE:Perimeter
;WIDTH:0.45
G1 F3600
G1 X-23.004 Y-7.996 E22.86261
G1 X-23.004 Y-9.004 E22.91109
G1 X23.004 Y-9.004 E25.12391
G1 X23.004 Y-8.5 E25.14815
G1 X23.004 Y-8.056 E25.1695
G1 X23.004 Y-8.056 F7800
G1 X23.389 Y-7.611
G1 F3600
G1 X-23.389 Y-7.611 E27.41936
G1 X-23.389 Y-9.389 E27.50488
G1 X23.389 Y-9.389 E29.75474
G1 X23.389 Y-8.5 E29.7975
G1 X23.389 Y-7.671 E29.83737
G1 X23.389 Y-7.671 F7800
G1 X23.775 Y-7.225
;TYPE:External perimeter
G1 F1800
G1 X-23.775 Y-7.225 E32.12436
G1 X-23.775 Y-9.775 E32.24701
G1 X23.775 Y-9.775 E34.534
G1 X23.775 Y-8.5 E34.59532
G1 X23.775 Y-7.285 E34.65376
G1 X23.379 Y-7.226 F7800
G1 E32.65376 F2400
G92 E0
G1 X-22.704 Y-8.296 F7800
G1 E2 F2400
;TYPE:Solid infill
;WIDTH:0.471738
G1 F1200
G1 X-22.704 Y-8.704 E2.02073
G1 X22.704 Y-8.704 E4.32781
G1 X22.704 Y-8.296 E4.34854
G1 X-22.511 Y-8.296 E6.64582
;LAYER_CHANGE
;Z:3.65
;HEIGHT:0.3
G1 Z3.65 F7800
G1 E4.64582 F2400
G92 E0
G1 X-22.511 Y-8.296 Z3.65 F7800
G1 X23.004 Y-7.996
G1 E2 F2400
;TYPE:Perimeter
;WIDTH:0.45
G1 F3600
G1 X-23.004 Y-7.996 E4.21282
G1 X-23.004 Y-9.004 E4.2613
G1 X23.004 Y-9.004 E6.47412
G1 X23.004 Y-8.5 E6.49836
G1 X23.004 Y-8.056 E6.51971
G1 X23.004 Y-8.056 F7800
G1 X23.389 Y-7.611
G1 F3600
G1 X-23.389 Y-7.611 E8.76957
G1 X-23.389 Y-9.389 E8.85509
G1 X23.389 Y-9.389 E11.10495
G1 X23.389 Y-8.5 E11.14771
G1 X23.389 Y-7.671 E11.18758
G1 X23.389 Y-7.671 F7800
G1 X23.775 Y-7.225
;TYPE:External perimeter
G1 F1800
G1 X-23.775 Y-7.225 E13.47457
G1 X-23.775 Y-9.775 E13.59722
G1 X23.775 Y-9.775 E15.88421
G1 X23.775 Y-8.5 E15.94553
G1 X23.775 Y-7.285 E16.00397
G1 X23.379 Y-7.226 F7800
G1 X22.704 Y-8.704
;TYPE:Solid infill
;WIDTH:0.471738
G1 F1200
G1 X22.704 Y-8.296 E16.0247
G1 X-22.704 Y-8.296 E18.33178
G1 X-22.704 Y-8.704 E18.35251
G1 X22.511 Y-8.704 E20.64979
;LAYER_CHANGE
;Z:3.95
;HEIGHT:0.3
G1 Z3.95 F7800
G1 X23.004 Y-7.996
;TYPE:Perimeter
;WIDTH:0.45
G1 F3600
G1 X-23.004 Y-7.996 E22.86261
G1 X-23.004 Y-9.004 E22.91109
G1 X23.004 Y-9.004 E25.12391
G1 X23.004 Y-8.5 E25.14815
G1 X23.004 Y-8.056 E25.1695
G1 X23.004 Y-8.056 F7800
G1 X23.389 Y-7.611
G1 F3600
G1 X-23.389 Y-7.611 E27.41936
G1 X-23.389 Y-9.389 E27.50488
G1 X23.389 Y-9.389 E29.75474
G1 X23.389 Y-8.5 E29.7975
G1 X23.389 Y-7.671 E29.83737
G1 X23.389 Y-7.671 F7800
G1 X23.775 Y-7.225
;TYPE:External perimeter
G1 F1800
G1 X-23.775 Y-7.225 E32.12436
G1 X-23.775 Y-9.775 E32.24701
G1 X23.775 Y-9.775 E34.534
G1 X23.775 Y-8.5 E34.59532
G1 X23.775 Y-7.285 E34.65376
G1 X23.379 Y-7.226 F7800
G1 E32.65376 F2400
G92 E0
G1 X-22.704 Y-8.296 F7800
G1 E2 F2400
;TYPE:Solid infill
;WIDTH:0.471738
G1 F1200
G1 X-22.704 Y-8.704 E2.02073
G1 X22.704 Y-8.704 E4.32781
G1 X22.704 Y-8.296 E4.34854
G1 X-22.511 Y-8.296 E6.64582
;LAYER_CHANGE
;Z:4.25
;HEIGHT:0.3
G1 Z4.25 F7800
G1 E4.64582 F2400
G92 E0
G1 X-22.511 Y-8.296 Z4.25 F7800
G1 X23.004 Y-7.996
G1 E2 F2400
;TYPE:Perimeter
;WIDTH:0.45
G1 F3600
G1 X-23.004 Y-7.996 E4.21282
G1 X-23.004 Y-9.004 E4.2613
G1 X23.004 Y-9.004 E6.47412
G1 X23.004 Y-8.5 E6.49836
G1 X23.004 Y-8.056 E6.51971
G1 X23.004 Y-8.056 F7800
G1 X23.389 Y-7.611
G1 F3600
G1 X-23.389 Y-7.611 E8.76957
G1 X-23.389 Y-9.389 E8.85509
G1 X23.389 Y-9.389 E11.10495
G1 X23.389 Y-8.5 E11.14771
G1 X23.389 Y-7.671 E11.18758
G1 X23.389 Y-7.671 F7800
G1 X23.775 Y-7.225
;TYPE:External perimeter
G1 F1800
G1 X-23.775 Y-7.225 E13.47457
G1 X-23.775 Y-9.775 E13.59722
G1 X23.775 Y-9.775 E15.88421
G1 X23.775 Y-8.5 E15.94553
G1 X23.775 Y-7.285 E16.00397
G1 X23.379 Y-7.226 F7800
G1 X22.704 Y-8.704
;TYPE:Solid infill
;WIDTH:0.471738
G1 F1200
G1 X22.704 Y-8.296 E16.0247
G1 X-22.704 Y-8.296 E18.33178
G1 X-22.704 Y-8.704 E18.35251
G1 X22.511 Y-8.704 E20.64979
;LAYER_CHANGE
;Z:4.55
;HEIGHT:0.3
G1 Z4.55 F7800
G1 X23.004 Y-7.996
;TYPE:Perimeter
;WIDTH:0.45
G1 F3600
G1 X-23.004 Y-7.996 E22.86261
G1 X-23.004 Y-9.004 E22.91109
G1 X23.004 Y-9.004 E25.12391
G1 X23.004 Y-8.5 E25.14815
G1 X23.004 Y-8.056 E25.1695
G1 X23.004 Y-8.056 F7800
G1 X23.389 Y-7.611
G1 F3600
G1 X-23.389 Y-7.611 E27.41936
G1 X-23.389 Y-9.389 E27.50488
G1 X23.389 Y-9.389 E29.75474
G1 X23.389 Y-8.5 E29.7975
G1 X23.389 Y-7.671 E29.83737
G1 X23.389 Y-7.671 F7800
G1 X23.775 Y-7.225
;TYPE:External perimeter
G1 F1800
G1 X-23.775 Y-7.225 E32.12436
G1 X-23.775 Y-9.775 E32.24701
G1 X23.775 Y-9.775 E34.534
G1 X23.775 Y-8.5 E34.59532
G1 X23.775 Y-7.285 E34.65376
G1 X23.379 Y-7.226 F7800
G1 E32.65376 F2400
G92 E0
G1 X-22.704 Y-8.296 F7800
G1 E2 F2400
;TYPE:Solid infill
;WIDTH:0.471738
G1 F1200
G1 X-22.704 Y-8.704 E2.02073
G1 X22.704 Y-8.704 E4.32781
G1 X22.704 Y-8.296 E4.34854
G1 X-22.511 Y-8.296 E6.64582
;LAYER_CHANGE
;Z:4.85
;HEIGHT:0.3
G1 Z4.85 F7800
G1 E4.64582 F2400
G92 E0
G1 X-22.511 Y-8.296 Z4.85 F7800
G1 X23.004 Y-7.996
G1 E2 F2400
;TYPE:Perimeter
;WIDTH:0.45
G1 F3600
G1 X-23.004 Y-7.996 E4.21282
G1 X-23.004 Y-9.004 E4.2613
G1 X23.004 Y-9.004 E6.47412
G1 X23.004 Y-8.5 E6.49836
G1 X23.004 Y-8.056 E6.51971
G1 X23.004 Y-8.056 F7800
G1 X23.389 Y-7.611
G1 F3600
G1 X-23.389 Y-7.611 E8.76957
G1 X-23.389 Y-9.389 E8.85509
G1 X23.389 Y-9.389 E11.10495
G1 X23.389 Y-8.5 E11.14771
G1 X23.389 Y-7.671 E11.18758
G1 X23.389 Y-7.671 F7800
G1 X23.775 Y-7.225
;TYPE:External perimeter
G1 F1800
G1 X-23.775 Y-7.225 E13.47457
G1 X-23.775 Y-9.775 E13.59722
G1 X23.775 Y-9.775 E15.88421
G1 X23.775 Y-8.5 E15.94553
G1 X23.775 Y-7.285 E16.00397
G1 X23.379 Y-7.226 F7800
G1 X22.704 Y-8.704
;TYPE:Solid infill
;WIDTH:0.471738
G1 F1200
G1 X22.704 Y-8.296 E16.0247
G1 X-22.704 Y-8.296 E18.33178
G1 X-22.704 Y-8.704 E18.35251
G1 X22.511 Y-8.704 E20.64979
;LAYER_CHANGE
;Z:5.15
;HEIGHT:0.3
G1 Z5.15 F7800
G1 X23.004 Y-7.996
;TYPE:Perimeter
;WIDTH:0.45
G1 F3600
G1 X-23.004 Y-7.996 E22.86261
G1 X-23.004 Y-9.004 E22.91109
G1 X23.004 Y-9.004 E25.12391
G1 X23.004 Y-8.5 E25.14815
G1 X23.004 Y-8.056 E25.1695
G1 X23.004 Y-8.056 F7800
G1 X23.389 Y-7.611
G1 F3600
